gama.ui.shared/icons_svg/dark/navigator/files/wizard.project.svg

<svg height="21.455" viewBox="-383.788 -3508.031 21.125 21.455" width="21.125" xmlns="http://www.w3.org/2000/svg"><g fill="none"><path d="m-383.28814-3507.406h20v20h-20z"/><path d="m-363.28814-3504.8884h-1.61276c-.1521 0-.27537.1234-.27537.2754v1.3373c0 .1521-.12327.2754-.27533.2754h-.0787c-.15206 0-.27534-.1233-.27534-.2754v-1.3373c0-.152-.12326-.2754-.27536-.2754h-1.3374c-.1521 0-.27536-.1233-.27536-.2756v-.0785c0-.152.12326-.2755.27536-.2755h1.3374c.1521 0 .27536-.123.27536-.275v-1.3376c0-.1521.12328-.2754.27534-.2754h.0787c.15206 0 .27533.1233.27533.2754v1.3376c0 .152.12327.275.27537.275h1.3374c.1521 0 .27536.1235.27536.2755z" fill="#999"/><path d="m-363.28814-3504.8884h-1.61276c-.1521 0-.27537.1234-.27537.2754v1.3373c0 .1521-.12327.2754-.27533.2754h-.0787c-.15206 0-.27534-.1233-.27534-.2754v-1.3373c0-.152-.12326-.2754-.27536-.2754h-1.3374c-.1521 0-.27536-.1233-.27536-.2756v-.0785c0-.152.12326-.2755.27536-.2755h1.3374c.1521 0 .27536-.123.27536-.275v-1.3376c0-.1521.12328-.2754.27534-.2754h.0787c.15206 0 .27533.1233.27533.2754v1.3376c0 .152.12327.275.27537.275h1.3374c.1521 0 .27536.1235.27536.2755z" stroke="#999" stroke-linecap="round" stroke-linejoin="round" stroke-width=".5"/><path d="m-380.6213-3496.071 5.0338-.2395 1.1985 1.6779 4.5544.3596v6.7117h-10.7867z" fill="#fff"/><path d="m-382.7302-3498.0662 5.0338-.2398 1.1985 1.678 4.5544.3595v6.7118h-10.7867z" fill="#fff"/><g fill="#999"><path d="m-371.9022-3494.7907v-.5993c0-.4963-.40245-.8988-.8989-.8988h-3.2959c-.66194 0-1.19854-.5366-1.19854-1.1985 0-.331-.2683-.5993-.59926-.5993h-3.8952c-.49643 0-.8989.4026-.8989.8989v6.5917c0 .4966.40247.899.8989.899h.59927c.49643 0 .89889-.4024.89889-.899v-2.996c0-.8275.67074-1.4983 1.49814-1.4983h5.9926c.33728 0 .6485.1113.8989.2996zm0 1.1987c0-.4966-.40245-.899-.8989-.899h-5.9926c-.49643 0-.8989.4024-.8989.899v2.996c0 .3375-.11143.6487-.2995.899h7.191c.49645 0 .8989-.4024.8989-.899zm-9.8878-5.094h3.8952c.66192 0 1.1985.5368 1.1985 1.1987 0 .331.2683.5993.5993.5993h3.2959c.8274 0 1.49816.6707 1.49816 1.498v4.794c0 .8276-.67076 1.4983-1.49816 1.4983h-8.9889c-.8274 0-1.49814-.6707-1.49814-1.4983v-6.5917c0-.8273.67074-1.4983 1.49814-1.4983z"/><path d="m-375.80816-3488.854c.05496.0644.13661.105.22779.105.09117 0 .17283-.0406.22777-.105zm-5.46518 0v.4048c0 .8272.67074 1.4982 1.49814 1.4982h8.9889c.8274 0 1.49816-.671 1.49816-1.4982v-4.7941c0-.8274-.67076-1.4982-1.49816-1.4982h-.23847v.5993h.23847c.49645 0 .8989.4024.8989.8989v4.7941c0 .4962-.40245.8988-.8989.8988h-8.9889c-.49644 0-.8989-.4026-.8989-.8988v-.4048z"/></g></g></svg>

<?xml version="1.0" encoding="UTF-8" standalone="no"?>
<!DOCTYPE svg PUBLIC "-//W3C//DTD SVG 1.1//EN" "http://www.w3.org/Graphics/SVG/1.1/DTD/svg11.dtd">
<svg xmlns="http://www.w3.org/2000/svg" xmlns:xl="http://www.w3.org/1999/xlink" version="1.1" xmlns:dc="http://purl.org/dc/elements/1.1/" viewBox="-383.78814 -3508.031 21.125 21.454852" width="21.125" height="21.454852">
  <defs/>
  <g id="SOURCES" stroke-opacity="1" fill="none" stroke="none" fill-opacity="1" stroke-dasharray="none">
    <title>SOURCES</title>
    <g id="SOURCES_New">
      <title>New</title>
      <g id="Group_10596">
        <g id="Group_10588">
          <g id="Graphic_10590">
            <rect x="-383.28814" y="-3507.406" width="20" height="20" stroke="gray" stroke-opacity="0" stroke-linecap="round" stroke-linejoin="round" stroke-width=".25"/>
          </g>
          <g id="Graphic_10589">
            <path d="M -363.28814 -3504.8884 L -364.9009 -3504.8884 C -365.053 -3504.8884 -365.17627 -3504.765 -365.17627 -3504.613 L -365.17627 -3503.2757 C -365.17627 -3503.1236 -365.29954 -3503.0003 -365.4516 -3503.0003 L -365.5303 -3503.0003 C -365.68236 -3503.0003 -365.80564 -3503.1236 -365.80564 -3503.2757 L -365.80564 -3504.613 C -365.80564 -3504.765 -365.9289 -3504.8884 -366.081 -3504.8884 L -367.4184 -3504.8884 C -367.5705 -3504.8884 -367.69376 -3505.0117 -367.69376 -3505.164 L -367.69376 -3505.2425 C -367.69376 -3505.3945 -367.5705 -3505.518 -367.4184 -3505.518 L -366.081 -3505.518 C -365.9289 -3505.518 -365.80564 -3505.641 -365.80564 -3505.793 L -365.80564 -3507.1306 C -365.80564 -3507.2827 -365.68236 -3507.406 -365.5303 -3507.406 L -365.4516 -3507.406 C -365.29954 -3507.406 -365.17627 -3507.2827 -365.17627 -3507.1306 L -365.17627 -3505.793 C -365.17627 -3505.641 -365.053 -3505.518 -364.9009 -3505.518 L -363.5635 -3505.518 C -363.4114 -3505.518 -363.28814 -3505.3945 -363.28814 -3505.2425 L -363.28814 -3504.8884 Z" fill="#999"/>
            <path d="M -363.28814 -3504.8884 L -364.9009 -3504.8884 C -365.053 -3504.8884 -365.17627 -3504.765 -365.17627 -3504.613 L -365.17627 -3503.2757 C -365.17627 -3503.1236 -365.29954 -3503.0003 -365.4516 -3503.0003 L -365.5303 -3503.0003 C -365.68236 -3503.0003 -365.80564 -3503.1236 -365.80564 -3503.2757 L -365.80564 -3504.613 C -365.80564 -3504.765 -365.9289 -3504.8884 -366.081 -3504.8884 L -367.4184 -3504.8884 C -367.5705 -3504.8884 -367.69376 -3505.0117 -367.69376 -3505.164 L -367.69376 -3505.2425 C -367.69376 -3505.3945 -367.5705 -3505.518 -367.4184 -3505.518 L -366.081 -3505.518 C -365.9289 -3505.518 -365.80564 -3505.641 -365.80564 -3505.793 L -365.80564 -3507.1306 C -365.80564 -3507.2827 -365.68236 -3507.406 -365.5303 -3507.406 L -365.4516 -3507.406 C -365.29954 -3507.406 -365.17627 -3507.2827 -365.17627 -3507.1306 L -365.17627 -3505.793 C -365.17627 -3505.641 -365.053 -3505.518 -364.9009 -3505.518 L -363.5635 -3505.518 C -363.4114 -3505.518 -363.28814 -3505.3945 -363.28814 -3505.2425 L -363.28814 -3504.8884 Z" stroke="#999" stroke-linecap="round" stroke-linejoin="round" stroke-width=".5"/>
          </g>
        </g>
        <g id="Group_10555">
          <g id="Graphic_10560">
            <path d="M -380.6213 -3496.071 L -375.5875 -3496.3105 L -374.389 -3494.6326 L -369.8346 -3494.273 L -369.8346 -3487.5613 L -380.6213 -3487.5613 Z" fill="white"/>
          </g>
          <g id="Graphic_10559">
            <path d="M -382.7302 -3498.0662 L -377.6964 -3498.306 L -376.4979 -3496.628 L -371.9435 -3496.2685 L -371.9435 -3489.5567 L -382.7302 -3489.5567 Z" fill="white"/>
          </g>
          <g id="Group_10556">
            <g id="Graphic_10558">
              <path d="M -371.9022 -3494.7907 L -371.9022 -3495.39 C -371.9022 -3495.8863 -372.30465 -3496.2888 -372.8011 -3496.2888 L -376.097 -3496.2888 C -376.75894 -3496.2888 -377.29554 -3496.8254 -377.29554 -3497.4873 C -377.29554 -3497.8183 -377.56384 -3498.0866 -377.8948 -3498.0866 L -381.79 -3498.0866 C -382.28643 -3498.0866 -382.6889 -3497.684 -382.6889 -3497.1877 L -382.6889 -3490.596 C -382.6889 -3490.0994 -382.28643 -3489.697 -381.79 -3489.697 L -381.19073 -3489.697 C -380.6943 -3489.697 -380.29184 -3490.0994 -380.29184 -3490.596 L -380.29184 -3493.592 C -380.29184 -3494.4195 -379.6211 -3495.0903 -378.7937 -3495.0903 L -372.8011 -3495.0903 C -372.46382 -3495.0903 -372.1526 -3494.979 -371.9022 -3494.7907 Z M -371.9022 -3493.592 C -371.9022 -3494.0886 -372.30465 -3494.491 -372.8011 -3494.491 L -378.7937 -3494.491 C -379.29013 -3494.491 -379.6926 -3494.0886 -379.6926 -3493.592 L -379.6926 -3490.596 C -379.6926 -3490.2585 -379.80403 -3489.9473 -379.9921 -3489.697 L -372.8011 -3489.697 C -372.30465 -3489.697 -371.9022 -3490.0994 -371.9022 -3490.596 L -371.9022 -3493.592 Z M -381.79 -3498.686 L -377.8948 -3498.686 C -377.23288 -3498.686 -376.6963 -3498.1492 -376.6963 -3497.4873 C -376.6963 -3497.1563 -376.428 -3496.888 -376.097 -3496.888 L -372.8011 -3496.888 C -371.9737 -3496.888 -371.30294 -3496.2173 -371.30294 -3495.39 L -371.30294 -3490.596 C -371.30294 -3489.7684 -371.9737 -3489.0977 -372.8011 -3489.0977 L -381.79 -3489.0977 C -382.6174 -3489.0977 -383.28814 -3489.7684 -383.28814 -3490.596 L -383.28814 -3497.1877 C -383.28814 -3498.015 -382.6174 -3498.686 -381.79 -3498.686 Z" fill="#999"/>
            </g>
            <g id="Graphic_10557">
              <path d="M -375.80816 -3488.854 C -375.7532 -3488.7896 -375.67155 -3488.749 -375.58037 -3488.749 C -375.4892 -3488.749 -375.40754 -3488.7896 -375.3526 -3488.854 Z M -381.27334 -3488.854 L -381.27334 -3488.4492 C -381.27334 -3487.622 -380.6026 -3486.951 -379.7752 -3486.951 L -370.7863 -3486.951 C -369.9589 -3486.951 -369.28814 -3487.622 -369.28814 -3488.4492 L -369.28814 -3493.2433 C -369.28814 -3494.0707 -369.9589 -3494.7415 -370.7863 -3494.7415 L -371.02477 -3494.7415 L -371.02477 -3494.1422 L -370.7863 -3494.1422 C -370.28985 -3494.1422 -369.8874 -3493.7398 -369.8874 -3493.2433 L -369.8874 -3488.4492 C -369.8874 -3487.953 -370.28985 -3487.5504 -370.7863 -3487.5504 L -379.7752 -3487.5504 C -380.27164 -3487.5504 -380.6741 -3487.953 -380.6741 -3488.4492 L -380.6741 -3488.854 Z" fill="#999"/>
            </g>
          </g>
        </g>
      </g>
    </g>
  </g>
</svg>
